www/assets/icons/note_alt.svg

<svg xmlns="http://www.w3.org/2000/svg" width="24" height="24" viewBox="0 0 24 24" fill='currentColor'><path d="M19 4h-4.18C14.4 2.84 13.3 2 12 2s-2.4.84-2.82 2H5c-1.1 0-2 .9-2 2v14c0 1.1.9 2 2 2h14c1.1 0 2-.9 2-2V6c0-1.1-.9-2-2-2m-7-.25c.41 0 .75.34.75.75s-.34.75-.75.75-.75-.34-.75-.75.34-.75.75-.75M9.1 18H7v-2.14l5.96-5.96 2.12 2.12zm7.75-7.73-1.06 1.06-2.12-2.12 1.06-1.06c.2-.2.51-.2.71 0l1.41 1.41c.2.2.2.51 0 .71"/></svg>

<svg width="24" height="24" viewBox="0 0 24 24" xmlns="http://www.w3.org/2000/svg" fill='currentColor'><path d="M19 4H14.82C14.4 2.84 13.3 2 12 2C10.7 2 9.6 2.84 9.18 4H5C3.9 4 3 4.9 3 6V20C3 21.1 3.9 22 5 22H19C20.1 22 21 21.1 21 20V6C21 4.9 20.1 4 19 4ZM12 3.75C12.41 3.75 12.75 4.09 12.75 4.5C12.75 4.91 12.41 5.25 12 5.25C11.59 5.25 11.25 4.91 11.25 4.5C11.25 4.09 11.59 3.75 12 3.75ZM9.1 18H7V15.86L12.96 9.9L15.08 12.02L9.1 18ZM16.85 10.27L15.79 11.33L13.67 9.21L14.73 8.15C14.93 7.95 15.24 7.95 15.44 8.15L16.85 9.56C17.05 9.76 17.05 10.07 16.85 10.27Z"/></svg>
